X:425
T:Rory Gallagher
T:Rory Gallagher's Jig
R:jig
C:Gordon Duncan (1964-2005), Scotland
Z:hn-jig-425
M:6/8
L:1/8
K:A
eaa faa | eae fec | ecf ecA | cBA Bcd |
eaa faa | eae fec | ecf ecA | BAA A3:|
|: cAA cde | dAA ded | eAA eAe | dAA ded |
cAA cde | dAA ded | ecf ecA | BAA A3:|
P:bagpipe version
|: {g}ea{g}a fa{g}a | eae {g}fec | {g}ecf {g}ec{G}A | {g}cBA {g}Bcd |
{g}ea{g}a fa{g}a | eae {g}fec | {gef}ecf {g}ec{G}A | {g}B{d}A{e}A {GAG}A3 :|
|: {g}cA{d}A {g}cde | {g}dA{d}A {g}ded | e{g}A{B}A e{g}Ae | {g}dA{d}A {g}ded |
{g}cA{d}A {g}cde | {g}dA{d}A {g}ded | {gef}ecf {g}ec{G}A | {g}B{d}A{e}A {GAG}A3 :|

